X: 739
T: Old Ebeneezer Scrooge
C:Bill Monroe
B: jims roots
M:C|
L:1/8
Q: 1/4=100
K:C
V:1 
%N:from Monroe DVD booklet by Jim Kendrick
|:"A"E2 AA cBAG | "G"D2 Bd BAAA | "A"A,2 AA cBAG | "E"EGAB "A"A2 A2 |
"A"E2 AA cBAA | "G"D2 Bd BAAA | "A"A,2 AA cBAG  | [1 "E"EGAB "A"A2 A2:|  [2 "E"EGAB "A"A2 ee||
|:"A"e2 ee geee | "D"eaaa aaac' | "A"e2 ee gedA | "E"cABd AG E2 | "A"eeee geee |
"D"eaaa aaac' | "A"e2 (3cBA AGGA  | [1 "E"EGAB "A"A2 ee:|  [2 "E"EGAA "A"A2 B,^C||
"A"A,2[A2E2][A2E2] B,2 | "G"G,2 B,D GD D2 | "A"[AE][AE] AAAA | "E"A^cde e^c A2 |
"A"[DG][AE][AE][AE] [AE][AE] B,2 | "G"G,2 B,D GE^FD | "A"A,CA,G, GA^FG| "E"EGAA "A"A2{D2G2] ||
"A"[DG][EA][EA][EA] [EA][EA]B,2 | "G"G,2 B,D GE^FD | "A"A,CA,G, GA^FG | "E"EGGB "A"A2A2 ||
|:"A"A,CEG "G"^FAFG | "E"EEEE "A"cAcA | A,CEG "G"^FAFA |"E"EGAB "A"A2A2 |
"A"A,CEG "G"^FAFG | "E"EEEE cAcA | A,CEG "G"^FAFA | [1 "E"EEEc "A"A2A2:|
V:2 "E"EEEc "A"A2 ze | aege ^feBA | cABA GEDC | A,CEG ^FAFG | EEEE [E4A4
|]
V:E2A2 
[E2A2]B, | "G"G,2 B,D GE^FD | "A"[EA][EA][EA][EA] AAAA | "E"A^cde e^c A2 |
% abcbook-tune_id 6298c2793cade99a88ca8b62


% abcbook-boost 0
% abcbook-tablature 
% abcbook-transpose 
% abcbook-lastupdated 1654178425856
% abcbook-soundfonts 
% abcbook-repeats 1


